X:1
T:Title
%%score { 1 | ( 2 3 ) }
L:1/8
M:4/4
K:G
V:1 treble nm="Grand Piano"
V:2 bass 
V:3 bass 
V:1
 z4 z2[Q:1/4=100] [B,D]2 | [B,G]2 [B,G]2 [DB]3 [DA] | [EG]2 [CE]2 [B,D]3 [B,D] | %3
 [CE]2 [DG]2 [Dc]3 [DB] | B4 A2 A2 | B2 G2 A3 B | G2 E2 [B,D]3 [B,D] | %7
 [G,CE]2 [G,DG]2 [CEA]3 [A,DF] | [B,DG]6 z2 | [DB]3 [CA] [B,G]3 [DF] | [^CF]2 [CE]2 D3 D | %11
 [DG]2 A2 B2 d2 | [GB]4 [FA]4 | [DGB]3 [EGc] [DGB]3 [CFA] | %14
 [B,EG][CEA] [B,EG]>[A,^DF] [G,E]3 [G,CE] | [G,B,D]2 [B,DG]2 [DGB]3 [B,DG] | %16
[M:7/8] [CDA]- [CDA]3 [B,DG]3 |] %17
V:2
 z4 z2 [G,,G,]2 | [G,,G,]2 [G,,G,]2 [G,,G,]3 [B,,G,] | [C,G,]2 [C,G,]2 [G,,G,]3 [G,,G,] | %3
 [C,G,]2 [B,,G,]2 [A,,F,]3 [G,,G,] | [D,D]6 z2 | [G,D]2 [G,B,]2 [D,F,C]3 [D,F,D] | %6
 [E,G,B,]2 [C,G,C]2 [G,,G,]3 [G,,G,] | C,2 B,,2 A,,3 D, | G,,6 z2 | %9
 [G,,G,]3 [G,,G,] [G,,G,]3 [B,,G,] | [A,,A,]2 [A,,G,]2 [D,F,]3 [C,F,] | %11
 [B,,F,]2 [D,F,D]2 [G,D]2 [F,B,D]2 | [D,D]4 [D,D]4 | G,3 G, G,3 D, | E,E, E,>B,, C,3 C, | %15
 D,2 D,2 D,3 D, |[M:7/8] D,- D,3 G,,3 |] %17
V:3
 x8 | x8 | x8 | x8 | G,4 F,2 [D,F,D]2 | x8 | x8 | x8 | x8 | x8 | x8 | x8 | x8 | x8 | x8 | x8 | %16
[M:7/8] x7 |] %17

